symbols/web/4g_plus_mobiledata/materialsymbolsoutlined/4g_plus_mobiledata_wght200grad200_48px.svg

<svg xmlns="http://www.w3.org/2000/svg" height="48" width="48"><path d="M40.8 29.25V25.1h-4.2v-2.15h4.2v-4.2H43v4.2h4.15v2.15H43v4.15ZM11 33.4v-6.2H2.9V14.6h2.2v10.45H11V14.6h2.2v10.45h2.15v2.15H13.2v6.2Zm22.4-10.5v7.05q0 1.4-1 2.425T30 33.4h-7.65q-1.45 0-2.45-1.025-1-1.025-1-2.375V18q0-1.35 1-2.375t2.45-1.025h8q1.1 0 1.925.65T33.4 16.8H22.35q-.5 0-.875.35T21.1 18v12q0 .5.375.85t.875.35H30q.5 0 .875-.35t.375-.85v-4.95h-4V22.9Z"/></svg>

<svg xmlns="http://www.w3.org/2000/svg" height="48" width="48"><path d="M40.8 29.25V25.1H36.6V22.95H40.8V18.75H43V22.95H47.15V25.1H43V29.25ZM11 33.4V27.2H2.9V14.6H5.1V25.05H11V14.6H13.2V25.05H15.35V27.2H13.2V33.4ZM33.4 22.9V29.95Q33.4 31.35 32.4 32.375Q31.4 33.4 30 33.4H22.35Q20.9 33.4 19.9 32.375Q18.9 31.35 18.9 30V18Q18.9 16.65 19.9 15.625Q20.9 14.6 22.35 14.6H30.35Q31.45 14.6 32.275 15.25Q33.1 15.9 33.4 16.8H22.35Q21.85 16.8 21.475 17.15Q21.1 17.5 21.1 18V30Q21.1 30.5 21.475 30.85Q21.85 31.2 22.35 31.2H30Q30.5 31.2 30.875 30.85Q31.25 30.5 31.25 30V25.05H27.25V22.9Z"/></svg>
